X:73
T:Double Figure Eight
M:4/4
R:Reel
K:D
A2|:d2A2F2A2|B2e2dcBA|d2f2agfe|d2f2agfe|
|d2A2F2A2|B2e2dcBA|d2f2agfe|1d2c2d2A2:|2 d2c2d2ef|
|:gfed cdef|gfed cdef|g2 gg g2 g2|gfed c2 c2|
|d2A2F2A2|B2e2dcBA|d2f2agfe|1d2c2d2ef:|2d2c2d2A2|
